docs/.gitbook/assets/icon-bar-code-16@light.svg

<svg width="32" height="32" viewBox="0 0 16 16" fill="none" xmlns="http://www.w3.org/2000/svg">
<rect x="0" y="0" width="16" height="16" fill="#fff"/>
<path fill-rule="evenodd" clip-rule="evenodd" d="M11 2.75C11 2.33579 11.3358 2 11.75 2H12.25C13.7688 2 15 3.23122 15 4.75V5.25C15 5.66421 14.6642 6 14.25 6C13.8358 6 13.5 5.66421 13.5 5.25V4.75C13.5 4.05964 12.9404 3.5 12.25 3.5H11.75C11.3358 3.5 11 3.16421 11 2.75ZM3.75 3.5C3.05964 3.5 2.5 4.05964 2.5 4.75V5.25C2.5 5.66421 2.16421 6 1.75 6C1.33579 6 1 5.66421 1 5.25V4.75C1 3.23122 2.23122 2 3.75 2H4.25C4.66421 2 5 2.33579 5 2.75C5 3.16421 4.66421 3.5 4.25 3.5H3.75ZM11.25 5C11.6642 5 12 5.33579 12 5.75V10.25C12 10.6642 11.6642 11 11.25 11C10.8358 11 10.5 10.6642 10.5 10.25V5.75C10.5 5.33579 10.8358 5 11.25 5ZM4.75 5C5.16421 5 5.5 5.33579 5.5 5.75V10.25C5.5 10.6642 5.16421 11 4.75 11C4.33579 11 4 10.6642 4 10.25L4 5.75C4 5.33579 4.33579 5 4.75 5ZM8 5C8.41421 5 8.75 5.33579 8.75 5.75L8.75 10.25C8.75 10.6642 8.41421 11 8 11C7.58579 11 7.25 10.6642 7.25 10.25L7.25 5.75C7.25 5.33579 7.58579 5 8 5ZM1.75 10C2.16421 10 2.5 10.3358 2.5 10.75L2.5 11.25C2.5 11.9404 3.05964 12.5 3.75 12.5H4.25C4.66421 12.5 5 12.8358 5 13.25C5 13.6642 4.66421 14 4.25 14H3.75C2.23122 14 1 12.7688 1 11.25L1 10.75C1 10.3358 1.33579 10 1.75 10ZM14.25 10C14.6642 10 15 10.3358 15 10.75V11.25C15 12.7688 13.7688 14 12.25 14H11.75C11.3358 14 11 13.6642 11 13.25C11 12.8358 11.3358 12.5 11.75 12.5H12.25C12.9404 12.5 13.5 11.9404 13.5 11.25V10.75C13.5 10.3358 13.8358 10 14.25 10Z" fill="#000"/>
</svg>

<svg xmlns="http://www.w3.org/2000/svg" width="32" height="32" fill="none" viewBox="0 0 16 16"><path fill="#fff" d="M0 0h16v16H0z"/><path fill="#000" fill-rule="evenodd" d="M11 2.75a.75.75 0 0 1 .75-.75h.5A2.75 2.75 0 0 1 15 4.75v.5a.75.75 0 0 1-1.5 0v-.5c0-.69-.56-1.25-1.25-1.25h-.5a.75.75 0 0 1-.75-.75m-7.25.75c-.69 0-1.25.56-1.25 1.25v.5a.75.75 0 0 1-1.5 0v-.5A2.75 2.75 0 0 1 3.75 2h.5a.75.75 0 0 1 0 1.5zm7.5 1.5a.75.75 0 0 1 .75.75v4.5a.75.75 0 0 1-1.5 0v-4.5a.75.75 0 0 1 .75-.75m-6.5 0a.75.75 0 0 1 .75.75v4.5a.75.75 0 0 1-1.5 0v-4.5A.75.75 0 0 1 4.75 5M8 5a.75.75 0 0 1 .75.75v4.5a.75.75 0 0 1-1.5 0v-4.5A.75.75 0 0 1 8 5m-6.25 5a.75.75 0 0 1 .75.75v.5c0 .69.56 1.25 1.25 1.25h.5a.75.75 0 0 1 0 1.5h-.5A2.75 2.75 0 0 1 1 11.25v-.5a.75.75 0 0 1 .75-.75m12.5 0a.75.75 0 0 1 .75.75v.5A2.75 2.75 0 0 1 12.25 14h-.5a.75.75 0 0 1 0-1.5h.5c.69 0 1.25-.56 1.25-1.25v-.5a.75.75 0 0 1 .75-.75" clip-rule="evenodd"/></svg>
